X: 33163
T: Princess Royal, The
R: reel
M: 4/4
K: Gmajor
dc|:BdAB GBdc|BdAB G/G/G Gc|Bcde dBgd|egdB c2dc|
B2gB A2BA|GFGE D2dc|BAGB AFGE|1 D2G2 G2dc:|2 D2G2 G3d||
|:gdga gdga|b2B2 BcBG|Aaag abag|fage d4|
c2 (3ccc cddd|deef g2fg|a2A2 g2ag|eged c2dc
BgBG A2BA|GFGE D2ed|BAGB AFGE|1 D2G2 G3d:|2 D2G2 G2||

